homework-2/images/footer-logo.svg

<svg width="105" height="38" viewBox="0 0 105 38" fill="none" xmlns="http://www.w3.org/2000/svg">
<mask id="mask0" mask-type="alpha" maskUnits="userSpaceOnUse" x="1" y="29" width="9" height="9">
<path fill-rule="evenodd" clip-rule="evenodd" d="M1 29.4519H9.48519V37.8859H1V29.4519Z" fill="white"/>
</mask>
<g mask="url(#mask0)">
<path fill-rule="evenodd" clip-rule="evenodd" d="M9.48519 31.276L7.95946 32.1298C7.45118 31.427 6.6565 31.0086 5.6585 31.0086C4.05057 31.0086 2.85014 32.0886 2.85014 33.6688C2.85014 35.3006 4.08946 36.3289 5.6585 36.3289C6.65031 36.3289 7.44499 35.9282 7.97891 35.2141L9.42773 36.1665C8.62686 37.2232 7.30533 37.8864 5.67176 37.8864C2.92616 37.8864 1 36.114 1 33.6688C1 31.2235 2.92616 29.4519 5.67176 29.4519C7.3177 29.4519 8.75415 30.1434 9.48519 31.276Z" fill="#7F7F7F"/>
</g>
<path fill-rule="evenodd" clip-rule="evenodd" d="M15.6295 37.8861H13.8026V34.3753L10.2734 29H12.421L14.7261 32.7704L17.0311 29H19.1131L15.6295 34.3823V37.8861Z" fill="#7F7F7F"/>
<path fill-rule="evenodd" clip-rule="evenodd" d="M22.957 36.3245L24.7888 36.3306C25.6954 36.3306 26.2568 36.102 26.2568 35.2511C26.2568 34.4134 25.6954 34.1919 24.7888 34.1919H22.957V36.3245ZM22.957 32.6367H24.6309C25.4439 32.6367 26.0762 32.4531 26.0762 31.5899C26.0762 30.7575 25.4325 30.5624 24.6244 30.5624H22.957V32.6367ZM27.7782 31.4627C27.7782 32.3578 27.2688 33.0807 26.5901 33.3481C27.3396 33.6209 27.954 34.3827 27.954 35.3404C27.954 37.0413 26.8367 37.8861 24.8706 37.8861H21.3242V29H24.6712C26.5787 29 27.7782 29.7679 27.7782 31.4627Z" fill="#7F7F7F"/>
<path fill-rule="evenodd" clip-rule="evenodd" d="M31.6367 37.8861V29H38.2162V30.6243H33.405V32.5929H37.9941V34.2181H33.405V36.2609H38.2665V37.8861H31.6367Z" fill="#7F7F7F"/>
<path fill-rule="evenodd" clip-rule="evenodd" d="M43.6201 32.8082H45.4641C46.3803 32.8082 46.8475 32.4586 46.8475 31.7039C46.8475 30.9606 46.357 30.6304 45.4641 30.6304H43.6201V32.8082ZM48.5664 31.7039C48.5664 33.1632 47.6086 34.1528 45.997 34.3249L48.5789 37.886H46.5542L44.1113 34.3505H43.62V37.886H41.9492V29H45.4939C47.4945 29 48.5664 30.002 48.5664 31.7039Z" fill="#7F7F7F"/>
<path fill-rule="evenodd" clip-rule="evenodd" d="M54.6969 30.5822C53.7085 30.5822 52.9993 30.9618 52.9993 31.6126C52.9993 32.2378 53.7657 32.4408 54.8299 32.6063L55.3303 32.6856C56.9204 32.9313 58.1554 33.6 58.1554 35.0901C58.1554 36.9785 56.4323 37.8861 54.526 37.8861C53.1764 37.8861 51.7387 37.5065 50.7891 36.7636L51.707 35.3844C52.3536 35.8748 53.3861 36.3107 54.5322 36.3107C55.5206 36.3107 56.2738 35.9362 56.2738 35.2735C56.2738 34.679 55.628 34.464 54.393 34.2678L53.8292 34.1825C52.2646 33.9378 51.1247 33.2801 51.1247 31.7235C51.1247 29.9323 52.7712 29 54.659 29C55.9073 29 56.9265 29.2695 58.048 29.9135L57.2111 31.3115C56.509 30.8944 55.6659 30.5822 54.6969 30.5822Z" fill="#7F7F7F"/>
<path fill-rule="evenodd" clip-rule="evenodd" d="M61.1016 37.886V29H67.681V30.6243H62.8698V32.5929H67.4588V34.2181H62.8698V36.2609H67.7312V37.886H61.1016Z" fill="#7F7F7F"/>
<mask id="mask1" mask-type="alpha" maskUnits="userSpaceOnUse" x="70" y="29" width="9" height="9">
<path fill-rule="evenodd" clip-rule="evenodd" d="M70.3008 29.4519H78.6574V37.8859H70.3008V29.4519Z" fill="white"/>
</mask>
<g mask="url(#mask1)">
<path fill-rule="evenodd" clip-rule="evenodd" d="M78.6574 31.276L77.1548 32.1298C76.6542 31.427 75.8716 31.0086 74.8887 31.0086C73.3051 31.0086 72.1229 32.0886 72.1229 33.6688C72.1229 35.3006 73.3434 36.3289 74.8887 36.3289C75.8655 36.3289 76.6481 35.9282 77.174 35.2141L78.6008 36.1665C77.8121 37.2232 76.5106 37.8864 74.9018 37.8864C72.1978 37.8864 70.3008 36.114 70.3008 33.6688C70.3008 31.2235 72.1978 29.4519 74.9018 29.4519C76.5228 29.4519 77.9374 30.1434 78.6574 31.276Z" fill="#7F7F7F"/>
</g>
<path fill-rule="evenodd" clip-rule="evenodd" d="M85.4093 37.8861C83.2345 37.8861 81.7266 36.6572 81.7266 34.2444V29H83.4367V34.1568C83.4367 35.5852 84.237 36.2209 85.4093 36.2209C86.5817 36.2209 87.3828 35.5852 87.3828 34.1568V29H89.0929V34.2444C89.0929 36.6572 87.5842 37.8861 85.4093 37.8861Z" fill="#7F7F7F"/>
<path fill-rule="evenodd" clip-rule="evenodd" d="M94.4482 32.8082H96.2922C97.2084 32.8082 97.6757 32.4586 97.6757 31.7039C97.6757 30.9606 97.1851 30.6304 96.2922 30.6304H94.4482V32.8082ZM99.3946 31.704C99.3946 33.1632 98.4368 34.1528 96.8252 34.3249L99.4071 37.8861H97.3824L94.9387 34.3505H94.4481V37.8861H92.7773V29H96.3221C98.3227 29 99.3946 30.002 99.3946 31.704Z" fill="#7F7F7F"/>
<mask id="mask2" mask-type="alpha" maskUnits="userSpaceOnUse" x="0" y="0" width="105" height="34">
<path fill-rule="evenodd" clip-rule="evenodd" d="M0 33.4199H105V0H0V33.4199Z" fill="white"/>
</mask>
<g mask="url(#mask2)">
<path fill-rule="evenodd" clip-rule="evenodd" d="M11.0941 8.85806L9.87302 8.66577C7.27151 8.26886 5.4007 7.78146 5.4007 6.27915C5.4007 4.71515 7.13379 3.80255 9.54574 3.80255C11.6617 3.80255 13.5277 4.39998 15.123 5.23956L17.7332 2.19793C14.994 0.650383 12.5042 0 9.45555 0C4.84173 0 0.817126 2.23906 0.817126 6.54136C0.817126 10.2863 3.60335 11.8627 7.42597 12.4519L8.80206 12.657C11.8205 13.1274 13.4029 13.6436 13.4029 15.076C13.4029 16.6647 11.5586 17.565 9.14609 17.565C6.55321 17.565 4.20121 16.6683 2.61448 15.604L0 18.658C2.3223 20.4385 5.8306 21.3516 9.12881 21.3516C13.7902 21.3516 18 19.1696 18 14.6339C18 11.0524 14.981 9.44726 11.0941 8.85806Z" fill="#7F7F7F"/>
<path fill-rule="evenodd" clip-rule="evenodd" d="M31.0457 10.8905L40.3034 0.928345H34.7831L27.4838 9.20098H25.4032V0.928345H21V21.3516H25.4032V12.9497H27.4354L35.291 21.3516H41L31.0457 10.8905Z" fill="#7F7F7F"/>
<path fill-rule="evenodd" clip-rule="evenodd" d="M79.8206 0.928345V12.7826C79.8206 16.0639 77.8634 17.5252 74.9979 17.5252C72.133 17.5252 70.18 16.0639 70.18 12.7826V0.928345H66V12.9816C66 18.5279 69.6862 21.3516 74.9979 21.3516C80.3138 21.3516 84 18.5279 84 12.9816V0.928345H79.8206Z" fill="#7F7F7F"/>
<path fill-rule="evenodd" clip-rule="evenodd" d="M87 0.928345V4.73454H93.8096V21.3516H98.1904V4.73454H105V0.928345H87Z" fill="#7F7F7F"/>
<path fill-rule="evenodd" clip-rule="evenodd" d="M51.4893 16.7059C47.6993 16.7059 44.6299 13.8682 44.6299 10.3644C44.6299 6.86464 47.6993 4.02246 51.4893 4.02246C55.2749 4.02246 58.3449 6.86464 58.3449 10.3644C58.3449 13.8682 55.2749 16.7059 51.4893 16.7059ZM51.4886 0C45.2931 0 40.2734 4.64066 40.2734 10.3644C40.2734 16.0881 45.2931 20.7288 51.4886 20.7288C57.6798 20.7288 62.6995 16.0881 62.6995 10.3644C62.6995 4.64066 57.6798 0 51.4886 0Z" fill="#7F7F7F"/>
</g>
</svg>

<svg width="105" height="38" fill="none" xmlns="http://www.w3.org/2000/svg"><mask id="a" maskUnits="userSpaceOnUse" x="1" y="29" width="9" height="9"><path fill-rule="evenodd" clip-rule="evenodd" d="M1 29.452h8.485v8.434H1v-8.434z" fill="#fff"/></mask><g mask="url(#a)"><path fill-rule="evenodd" clip-rule="evenodd" d="M9.485 31.276l-1.526.854c-.508-.703-1.302-1.121-2.3-1.121-1.608 0-2.809 1.08-2.809 2.66 0 1.632 1.24 2.66 2.808 2.66.992 0 1.787-.4 2.32-1.115l1.45.953c-.801 1.056-2.123 1.72-3.756 1.72C2.926 37.886 1 36.113 1 33.668c0-2.445 1.926-4.217 4.672-4.217 1.646 0 3.082.691 3.813 1.824z" fill="#7F7F7F"/></g><path fill-rule="evenodd" clip-rule="evenodd" d="M15.63 37.886h-1.827v-3.51L10.273 29h2.148l2.305 3.77L17.031 29h2.082l-3.483 5.382v3.504zM22.957 36.325l1.832.006c.906 0 1.468-.229 1.468-1.08 0-.838-.562-1.06-1.468-1.06h-1.832v2.133zm0-3.688h1.674c.813 0 1.445-.184 1.445-1.047 0-.832-.643-1.028-1.452-1.028h-1.667v2.075zm4.821-1.174c0 .895-.51 1.618-1.188 1.885a2.118 2.118 0 011.364 1.992c0 1.701-1.117 2.546-3.083 2.546h-3.547V29h3.347c1.908 0 3.107.768 3.107 2.463zM31.637 37.886V29h6.58v1.624h-4.812v1.969h4.59v1.625h-4.59v2.043h4.861v1.625h-6.63zM43.62 32.808h1.844c.916 0 1.383-.35 1.383-1.104 0-.743-.49-1.074-1.383-1.074H43.62v2.178zm4.946-1.104c0 1.46-.957 2.449-2.569 2.62l2.582 3.562h-2.025l-2.443-3.536h-.491v3.536h-1.67V29h3.544c2 0 3.072 1.002 3.072 2.704zM54.697 30.582c-.989 0-1.698.38-1.698 1.03 0 .626.767.829 1.83.994l.501.08c1.59.245 2.825.914 2.825 2.404 0 1.888-1.723 2.796-3.629 2.796-1.35 0-2.787-.38-3.737-1.122l.918-1.38c.647.49 1.68.927 2.825.927.989 0 1.742-.375 1.742-1.038 0-.594-.646-.809-1.881-1.005l-.564-.086c-1.564-.244-2.704-.902-2.704-2.459 0-1.79 1.646-2.723 3.534-2.723 1.248 0 2.267.27 3.389.913l-.837 1.398c-.702-.417-1.545-.729-2.514-.729zM61.102 37.886V29h6.579v1.624H62.87v1.969h4.589v1.625h-4.59v2.043h4.862v1.625h-6.63z" fill="#7F7F7F"/><mask id="b" maskUnits="userSpaceOnUse" x="70" y="29" width="9" height="9"><path fill-rule="evenodd" clip-rule="evenodd" d="M70.3 29.452h8.357v8.434h-8.356v-8.434z" fill="#fff"/></mask><g mask="url(#b)"><path fill-rule="evenodd" clip-rule="evenodd" d="M78.657 31.276l-1.502.854c-.5-.703-1.283-1.121-2.266-1.121-1.584 0-2.766 1.08-2.766 2.66 0 1.632 1.22 2.66 2.766 2.66.977 0 1.76-.4 2.285-1.115l1.427.953c-.789 1.056-2.09 1.72-3.7 1.72-2.703 0-4.6-1.773-4.6-4.218 0-2.445 1.897-4.217 4.6-4.217 1.622 0 3.036.691 3.756 1.824z" fill="#7F7F7F"/></g><path fill-rule="evenodd" clip-rule="evenodd" d="M85.41 37.886c-2.175 0-3.683-1.229-3.683-3.642V29h1.71v5.157c0 1.428.8 2.064 1.972 2.064 1.173 0 1.974-.636 1.974-2.064V29h1.71v5.244c0 2.413-1.509 3.642-3.684 3.642zM94.448 32.808h1.844c.916 0 1.384-.35 1.384-1.104 0-.743-.49-1.074-1.384-1.074h-1.844v2.178zm4.947-1.104c0 1.46-.958 2.449-2.57 2.62l2.582 3.562h-2.025L94.94 34.35h-.49v3.536h-1.672V29h3.545c2 0 3.073 1.002 3.073 2.704z" fill="#7F7F7F"/><mask id="c" maskUnits="userSpaceOnUse" x="0" y="0" width="105" height="34"><path fill-rule="evenodd" clip-rule="evenodd" d="M0 33.42h105V0H0v33.42z" fill="#fff"/></mask><g mask="url(#c)" fill-rule="evenodd" clip-rule="evenodd" fill="#7F7F7F"><path d="M11.094 8.858l-1.221-.192c-2.601-.397-4.472-.885-4.472-2.387 0-1.564 1.733-2.476 4.145-2.476 2.116 0 3.982.597 5.577 1.437l2.61-3.042C14.994.65 12.504 0 9.456 0 4.842 0 .817 2.24.817 6.541c0 3.745 2.786 5.322 6.609 5.91l1.376.206c3.018.47 4.6.987 4.6 2.419 0 1.589-1.843 2.489-4.256 2.489-2.593 0-4.945-.897-6.532-1.961L0 18.658c2.322 1.78 5.83 2.694 9.129 2.694 4.661 0 8.871-2.182 8.871-6.718 0-3.582-3.019-5.187-6.906-5.776zM31.046 10.89L40.303.928h-5.52l-7.3 8.273h-2.08V.928H21v20.424h4.403V12.95h2.032l7.856 8.402H41L31.046 10.89zM79.82.928v11.855c0 3.28-1.957 4.742-4.822 4.742s-4.818-1.461-4.818-4.742V.928H66v12.054c0 5.546 3.686 8.37 8.998 8.37 5.316 0 9.002-2.824 9.002-8.37V.928h-4.18zM87 .928v3.807h6.81v16.617h4.38V4.735H105V.928H87z"/><path d="M51.49 16.706c-3.79 0-6.86-2.838-6.86-6.342 0-3.5 3.07-6.342 6.86-6.342 3.785 0 6.855 2.843 6.855 6.342 0 3.504-3.07 6.342-6.856 6.342zM51.488 0c-6.196 0-11.216 4.64-11.216 10.364 0 5.724 5.02 10.365 11.216 10.365 6.19 0 11.21-4.64 11.21-10.365C62.7 4.641 57.68 0 51.49 0z"/></g></svg>
